module-11/build/images/about/linkedin.svg

<svg xmlns="http://www.w3.org/2000/svg" width="14" height="14"><path fill-rule="evenodd" fill="#FFF" d="M3.181 4.549H.173V14h3.008V4.549zm.191-2.919C3.363.705 2.725 0 1.695 0 .674 0 0 .705 0 1.63c0 .906.647 1.631 1.659 1.631h.018c1.048 0 1.704-.725 1.695-1.631zM14 8.583c0-2.9-1.477-4.254-3.454-4.254-1.623 0-2.334.944-2.726 1.593h.018V4.549H4.84s.036.887 0 9.451h2.998V8.726c0-.286.028-.563.101-.773.218-.562.711-1.144 1.54-1.144 1.085 0 1.522.867 1.522 2.136V14H14V8.583z"/></svg>

<svg 
 xmlns="http://www.w3.org/2000/svg"
 xmlns:xlink="http://www.w3.org/1999/xlink"
 width="14px" height="14px">
<path fill-rule="evenodd"  fill="rgb(255, 255, 255)"
 d="M3.181,4.549 L0.173,4.549 L0.173,14.000 L3.181,14.000 L3.181,4.549 ZM3.372,1.630 C3.363,0.705 2.725,-0.000 1.695,-0.000 C0.674,-0.000 -0.000,0.705 -0.000,1.630 C-0.000,2.536 0.647,3.261 1.659,3.261 L1.677,3.261 L1.677,3.261 C2.725,3.261 3.381,2.536 3.372,1.630 ZM14.000,8.583 C14.000,5.683 12.523,4.329 10.546,4.329 C8.923,4.329 8.212,5.273 7.820,5.922 L7.838,5.922 L7.838,4.549 L4.840,4.549 C4.840,4.549 4.876,5.436 4.840,14.000 L4.840,14.000 L7.838,14.000 L7.838,8.726 C7.838,8.440 7.866,8.163 7.939,7.953 C8.157,7.391 8.650,6.809 9.479,6.809 C10.564,6.809 11.001,7.676 11.001,8.945 L11.001,14.000 L14.000,14.000 L14.000,8.583 Z"/>
</svg>
